X: 2547
T: Ballyhoura Mountains, The
R: polka
M: 2/4
K: Gmajor
|:BB AG|EG DG|BA/B/ AG|Bd e2|
dB AG|EG DG|BA/B/ dB|AG G2:|
|:g>f ed|Bd AG|g>f ed|Bd A2|
g>f ed|Bd AG|BA/B/ dB|AG G2:|

